X: 11269
T: Dusty Windowsills
R: jig
M: 6/8
K: Adorian
AAB cBA|eAB cBA|FG[G,G] EG[G,G]|DGG EFG|
AAB cBA|eed efg|age dBG|1 ABA ADE:|2 ABA AA^g||
|:^gaa a=ge|dBd dgg|g/g/ag gf/f/e|dBA FGG|
EGG DGG|EFG ABc|Bed ~BAG|1 ABA Ae^g:|2 ABA ADE||
|:AB/B/A gAf|AB/B/A gdB|FGG edB|[G,G]GG edB|
AB/B/A ggf|ABA efg|age dBG|ABA ADE:|

